boxicons/svg/regular/bx-message-square-error.svg

<svg xmlns="http://www.w3.org/2000/svg" width="24" height="24" viewBox="0 0 24 24"><path d="M16 2H8C4.691 2 2 4.691 2 8v13a1 1 0 0 0 1 1h13c3.309 0 6-2.691 6-6V8c0-3.309-2.691-6-6-6zm4 14c0 2.206-1.794 4-4 4H4V8c0-2.206 1.794-4 4-4h8c2.206 0 4 1.794 4 4v8z"/><path d="M11 6h2v8h-2zm0 10h2v2h-2z"/></svg>

<svg xmlns="http://www.w3.org/2000/svg" width="24" height="24" viewBox="0 0 24 24"><path d="M16,2H8C4.691,2,2,4.691,2,8v13c0,0.553,0.447,1,1,1h13c3.309,0,6-2.691,6-6V8C22,4.691,19.309,2,16,2z M20,16 c0,2.206-1.794,4-4,4H4V8c0-2.206,1.794-4,4-4h8c2.206,0,4,1.794,4,4V16z"/><path d="M11 6H13V14H11zM11 16H13V18H11z"/></svg>
